X:1
T:Title
%%score { ( 1 3 ) | ( 2 4 ) }
L:1/8
Q:1/4=108
M:4/4
K:F
V:1 treble nm="Grand Piano"
V:3 treble 
V:2 treble 
V:4 treble 
V:1
 A4 A2 G2 | c6 F2 | d2 c2 c2 B2 | A2 A2 G2 F2 |[M:3/4] [EG]6 |[M:1/4] [EG]2 |[M:4/4] B4 B4 | %7
w: John~E.~Gaul * *|||||||
 [EA]4 [^CE]4 | [DA]2 [EG]2 [DF]2 [^CE]2 | z4 F4- | F4 z4 | [A,F]8 |] %12
w: |||||
V:2
 [F,CF]4 [B,CE]2 [B,CE]2 | [A,CF]6 [A,C]2 | [B,F]2 [A,CF]2 [A,CF]2[K:bass] [G,CE]2 | %3
 [F,CF]2 [F,CF]2 [G,=B,D]2 [G,B,D]2 |[M:3/4] [C,C]6 |[M:1/4] [C,G,]2 |[M:4/4] [G,D]4 [G,D]4 | %7
 [^C,E,]4 [A,,A,]4 | [=B,,A,]2 [^C,A,]2 [D,A,]2 [A,,G,]2 | [B,,F,]4 z4 | %10
 [G,,G,]4 [C,G,B,]2 [C,G,B,]2 | [F,,F,]8 |] %12
V:3
 x8 | x8 | x8 | x8 |[M:3/4] x6 |[M:1/4] x2 |[M:4/4] z2 F,2 z2 D,2 | x8 | x8 | D4 z4 | B,4 F2 E2 | %11
 x8 |] %12
V:4
 x8 | x8 | x6[K:bass] x2 | x8 |[M:3/4] x6 |[M:1/4] x2 |[M:4/4] z4 E,2 z2 | x8 | x8 | x8 | x8 | %11
 x8 |] %12

